X:1
T:How numerous, Lord, of late are grown
T:How numerous, Lord, of late are grown (William Gifford)
C:William Gifford
Z:Text: Tate/Brady, on Ps. 3
%%score [ 1 2 3 4 ]
L:1/8
M:2/2
K:Gmin
V:1 treble nm="Soprano" snm="S."
V:2 treble nm="Alto" snm="A."
V:3 treble-8 transpose=-12 nm="Tenor" snm="T."
V:4 bass nm="Bass" snm="B."
V:1
"^Plaintive" G4 B2 A2 | (G2 B2) (d2 ec) | B4 A4 | G6 [Bd]2 | ([Bd]2 [Ac]2) ([Ac]2 [GB]2) | %5
w: A- rise and|save _ me, _ _|O my|God, Who|oft _ hast _|
w: How num- ’rous,|Lord, _ of _ _|late are|grown The|troub- * lers _|
w: But thou, O|Lord, _ art _ _|my de-|fence, On|thee _ my _|
 ([GB]2 [Bd]2) ([Ac]2 [GB]2) | ([GB]4 [^FA]2) A2 | (B2 c2 d2) c2 | B4 A4 | B8 | A4 c2 d2 | A4 ^F4 | %12
w: own’d _ my _|cause, _ who|oft _ _ hast|own’d my|cause;|And scat- ter’d|oft those|
w: of _ my _|peace, _ the|troub- * * lers|of my|peace;|And as their|num- bers|
w: hopes _ re- *|ly, _ on|thee _ _ my|hopes re-|ly:|Thou art my|glo- ry,|
 (G2 A2) (B2 c2) | d6 z2 | z4 z2 d2 | B2 c2 d2 d2 | d4 z2 f2 | d2 e2 f2 f2 | c4 z2 c2 | A4 z2 d2 | %20
w: foes _ to _|me|And|to thy right- eous|laws, and|to thy right- eous|laws, thy|laws, and|
w: hour- * ly _|rise,|So|doth their rage in-|crease, so|doth their rage in-|crease, in-|crease, so|
w: and _ shalt _|yet|Lift|up my head on|high, lift|up my head on|high, on|high, lift|
 d6 c2 | B4 A4 | G8 |] %23
w: to thy|right- eous|laws.|
w: doth their|rage in-|crease.|
w: up my|head on|high.|
V:2
 D4 D2 D2 | G4 G4 | G4 D4 | D6 z2 | z8 | z8 | z4 z2 ^F2 | G6 G2 | F4 E4 | D8 | F4 E2 D2 | C4 ^F4 | %12
w: A- rise and|save me,|O my|God,|||Who|oft hast|own’d my|cause;|And scat- ter’d|oft those|
w: How num- ’rous,|Lord, of|late are|grown|||The|troub- lers|of my|peace;|And as their|num- bers|
w: But thou, O|Lord, art|my de-|fence,|||On|thee my|hopes re-|ly:|Thou art my|glo- ry,|
 D4 G4 | ^F6 D2 | D2 E2 ^F2 F2 | G4 z2 G2 | F2 G2 A2 A2 | B4 z2 D2 | C2 D2 E2 E2 | F4 z2 ^F2 | %20
w: foes to|me And|to thy right- eous|laws, and|to thy right- eous|laws, and|to thy right- eous|laws, and|
w: hour- ly|rise, So|doth their rage in-|crease, so|doth their rage in-|crease, so|doth their rage in-|crease, so|
w: and shalt|yet Lift|up my head on|high, lift|up my head on|high, lift|up my head on|high, lift|
 (G2 A2 G2) G2 | G4 D4 | D8 |] %23
w: to _ _ thy|right- eous|laws.|
w: doth _ _ their|rage in-|crease.|
w: up _ _ my|head on|high.|
V:3
 G4 G2 ^F2 | (G2 D2) (B2 A2) | G4 ^F4 | G6 z2 | z8 | z8 | z4 z2 d2 | (d2 c2 B2) c2 | d4 c4 | B8 | %10
w: A- rise and|save _ me, _|O my|God,|||Who|oft _ _ hast|own’d my|cause;|
w: How num- ’rous,|Lord, _ of _|late are|grown|||The|troub- * * lers|of my|peace;|
w: But thou, O|Lord, _ art _|my de-|fence,|||On|thee _ _ my|hopes re-|ly:|
 d4 e2 f2 | (f2 c2) (d2 A2) | (B2 A2) G4 | A6 z2 | z4 z2 A2 | G2 A2 B2 B2 | A4 z2 c2 | %17
w: And scat- ter’d|oft _ those _|foes _ to|me|And|to thy right- eous|laws, and|
w: And as their|num- * bers _|hour- * ly|rise,|So|doth their rage in-|crease, so|
w: Thou art my|glo- * ry, _|and _ shalt|yet|Lift|up my head on|high, lift|
 B2 c2 d2 d2 | e4 z2 G2 | F4 z2 A2 | (B2 c2 B2) A2 | G4 ^F4 | G8 |] %23
w: to thy right- eous|laws, thy|laws, and|to _ _ thy|right- eous|laws.|
w: doth their rage in-|crease, in-|crease, so|doth _ _ their|rage in-|crease.|
w: up my head on|high, on|high, lift|up _ _ my|head on|high.|
V:4
 G,4 D,2 D,2 | B,,4 (B,,2 C,2) | D,4 D,4 | G,,6 B,,2 | F,,6 G,,2 | B,,4 C,4 | D,6 D,2 | %7
w: A- rise and|save me, _|O my|God, Who|oft hast|own’d my|cause, who|
w: How num- ’rous,|Lord, of _|late are|grown The|troub- lers|of my|peace, the|
w: But thou, O|Lord, art _|my de-|fence, On|thee my|hopes re-|ly, on|
 (G,2 A,2 B,2) E,2 | F,4 F,4 | B,,8 | D,4 C,2 B,,2 | F,4 D,4 | (G,2 F,2) E,4 | D,6 D,2 | %14
w: oft _ _ hast|own’d my|cause;|And scat- ter’d|oft those|foes _ to|me And|
w: troub- * * lers|of my|peace;|And as their|num- bers|hour- * ly|rise, So|
w: thee _ _ my|hopes re-|ly:|Thou art my|glo- ry,|and _ shalt|yet Lift|
 B,,2 C,2 D,2 D,2 | G,4 z2 G,2 | D,2 E,2 F,2 F,2 | B,,4 z2 B,,2 | %18
w: to thy right- eous|laws, and|to thy right- eous|laws, and|
w: doth their rage in-|crease, so|doth their rage in-|crease, so|
w: up my head on|high, lift|up my head on|high, lift|
"^Notes: The alto part is printed in the source in the treble clef an octave above sounding pitch. The alto F# in bar 7 has beensharpened editorially: this note has no accidental in the source. The first verse only of the text is underlaid in the source,with the three subsequent verses given here printed after the music: these have been underlaid editorially, and the figuringof the vocal bass part in the source has been omitted to facilitate this." A,,2 B,,2 C,2 C,2 | %19
w: to thy right- eous|
w: doth their rage in-|
w: up my head on|
 F,4 z2 D,2 | (G,2 ^F,2 G,2) C,2 | D,4 D,4 | G,,8 |] %23
w: laws, and|to _ _ thy|right- eous|laws.|
w: crease, so|doth _ _ their|rage in-|crease.|
w: high, lift|up _ _ my|head on|high.|

